X: 18612
T: I Will If I Can
R: jig
M: 6/8
K: Amajor
|:A2B c2B|Ace faf|ecA BAF|B3 BcB|
A2B c2B|Ace faf|ecA BAB|1 cAG AcB:|2 cAG A2B||
|:cAA eAA|fec eAA|Ace aec|~B3 BAB|
cAA eAA|fec eAA|Ace aed|cdB A2B|
c2d e2e|~f3 ecA|Ace aec|~B3 BAB|
cAA eAA|fec eAA|Ace aed|cdB Acd|
|:~a3 fec|~e3 ece|~a3 fec|~B3 Bce|
~a3 fec|ece a2f|efe dcB|1 cAG Ace:|2 cAA AcB||

